X:512
T:Working hard ain't hardly working anymore
C:Junior Sisk & Radio Ramblers
N:mando : Jonathan Dillon - Transcribed by Philippe Colleu
R:bluegrass
L:1/8
Q:1/4=220
M:4/4
K:C
"(117 bpm)"z2 [B2^F2] F^G B2 | "B"d^d d^f =d^d df | d^c B2 cB {G}^GB | "E"G^F EF ^GB ^c^d | 
e4 ^F^G B2 | "B"^c^d ^f2 f2 ^gf | d^d d^f =d^d df | d/^c3/2 BA _B2 =B2 | "F#"B^c c^f2e cB | 
A_B [B2^F2] F^G =B2 | "B"^c^d ^f2 f2 ^gf | d^c B2 cB {G}^GB | "E"G^F EF ^GB ^c^d | 
e2 [B^G][BG] [BG][BG] [B2G2] | [B2^G2] GB ^FG B2 | "B"^c^d ^f2 f2 ^gf | "F#"d^c B^G ^FF _Bc | 
"B"B2 BA ^FE D^D | B,4 z^D EE | ^F2 B2 ^d2 ^f2 | b8 | 


